public/assets/techs/styled-components.svg

<svg width="20" height="20" viewBox="0 0 20 20" fill="none" xmlns="http://www.w3.org/2000/svg">
<path d="M13.5117 5.63499L13.4492 5.96083C13.3525 6.57833 13.3875 6.75499 13.6525 6.98416L13.9083 7.19583L13.6433 8.37749C13.485 9.08249 13.2908 9.67333 13.1675 9.86749C13.0617 10.035 12.9383 10.2817 12.9117 10.4142C12.8675 10.5725 12.7175 10.7317 12.4883 10.8725C12.2858 10.9875 11.8883 11.2958 11.6067 11.5433C11.3817 11.7458 11.2267 11.87 11.1425 11.9233L10.8675 12.1408C10.7792 12.2825 10.7292 12.3967 10.71 12.4833C10.6908 12.5725 10.7017 12.6317 10.73 12.675C10.7575 12.7167 10.805 12.7458 10.87 12.7642C10.9469 12.7822 11.0261 12.7887 11.105 12.7833C11.2834 12.7711 11.46 12.7398 11.6317 12.69C11.69 12.6742 11.7358 12.6592 11.7758 12.6458C11.8375 12.57 11.98 12.4267 12.2325 12.1775C12.9025 11.5167 13.1583 11.155 12.8942 11.2525C12.7967 11.2875 12.8408 11.1992 13.0083 11.0225C13.3617 10.6783 13.5642 10.1583 13.9875 8.52749C14.3225 7.23999 14.3225 7.22166 14.5692 7.22166C14.685 7.22166 15.0125 7.24166 15.0125 7.24166V5.63499H14.2608H13.5117ZM16.7108 8.27249C16.6575 8.27249 16.5692 8.35249 16.5167 8.44083C16.42 8.59916 16.5342 8.69583 17.9892 9.60416C18.8533 10.1517 19.55 10.6183 19.5325 10.6542C19.515 10.68 18.8092 11.1392 17.9633 11.6683C16.4283 12.62 16.42 12.6292 16.5608 12.8233C16.7375 13.0525 16.5608 13.1317 18.5533 11.8883L20 10.9625V10.2658L18.3858 9.26916C17.5133 8.72249 16.755 8.28166 16.7108 8.27249ZM3.30667 8.36999C3.2625 8.36999 2.50417 8.81999 1.63167 9.35749L0 10.3542V11.0508L1.6225 12.065C2.5225 12.62 3.28083 13.0792 3.31583 13.0792C3.35083 13.0792 3.42167 12.9992 3.4925 12.9025C3.59833 12.735 3.50917 12.6642 2.01917 11.7208C0.6 10.83 0.45 10.7067 0.591667 10.61C0.68 10.5483 1.35 10.1333 2.07333 9.68416C3.7225 8.66999 3.63417 8.73999 3.50167 8.52833C3.44917 8.44083 3.36 8.36166 3.3075 8.36999H3.30667ZM10.5433 8.38916C10.3 8.38749 9.77667 8.75833 8.21 10.0375C8.1425 10.1983 8.13667 10.3092 8.1675 10.3808C8.1875 10.43 8.22417 10.4642 8.275 10.4892C8.325 10.5142 8.39 10.5292 8.46167 10.535C8.60417 10.5475 8.7725 10.525 8.90833 10.4983L9 10.4775C9.03138 10.4354 9.07258 10.4017 9.12 10.3792C9.21667 10.3258 9.6225 9.95583 10.0283 9.55916C10.7425 8.83583 10.91 8.50916 10.6192 8.40333C10.5953 8.39383 10.5698 8.38903 10.5442 8.38916H10.5433ZM12.3733 8.89166C12.1592 8.89749 11.7733 9.14583 11.1125 9.67333C10.7808 9.94249 10.5708 10.0875 10.4583 10.1175L10.0217 10.4625C9.8575 10.7625 9.83333 10.9483 9.87667 11.0508C9.88751 11.0761 9.90326 11.099 9.923 11.1182C9.94274 11.1373 9.96607 11.1524 9.99167 11.1625C10.0553 11.1876 10.1232 11.2004 10.1917 11.2C10.3552 11.1983 10.5178 11.1744 10.675 11.1292C10.7569 11.1072 10.8378 11.0816 10.9175 11.0525L10.9417 11.0425L10.9858 11.0192C11.0692 10.9117 11.2608 10.7092 11.5008 10.4758C12.2592 9.74416 12.6467 9.22416 12.5675 9.02999C12.5317 8.93583 12.47 8.88833 12.3733 8.89166V8.89166ZM10.3533 9.79166C10.2917 9.79833 10.1533 9.90499 9.90417 10.1233C9.54417 10.4417 9.15167 10.625 9.01583 10.5433C8.98427 10.5505 8.9526 10.5571 8.92083 10.5633C8.7825 10.5908 8.61 10.6133 8.45583 10.6008C8.38319 10.5964 8.312 10.5786 8.24583 10.5483C8.18343 10.5198 8.13362 10.4694 8.10583 10.4067C8.075 10.3317 8.075 10.2383 8.11 10.1192L7.56833 10.5642L6.3425 11.5783V13.2225L10.3592 10.0583C10.3584 10.0237 10.3629 9.98912 10.3725 9.95583C10.4033 9.84416 10.4017 9.78749 10.3533 9.79249V9.79166ZM12.0817 10.3242C12.0208 10.3242 11.9192 10.41 11.7567 10.5825C11.5358 10.8183 11.1883 11.0467 11.0042 11.0933L10.9758 11.1083C10.9456 11.1208 10.915 11.1325 10.8842 11.1433C10.8342 11.16 10.7692 11.18 10.6942 11.2C10.5442 11.2408 10.3575 11.2783 10.1908 11.2742C10.1123 11.2741 10.0344 11.2588 9.96167 11.2292C9.89307 11.2009 9.83811 11.1471 9.80833 11.0792C9.76 10.9633 9.77917 10.8008 9.885 10.57L6.34167 13.3608V14.365H7.89833L11.2 11.7717C11.2858 11.6767 11.415 11.5467 11.5892 11.3842C12.0558 10.9517 12.1617 10.8025 12.1617 10.5817C12.1617 10.41 12.1425 10.3233 12.0817 10.3233V10.3242ZM12.8675 11.9492L12.585 12.2308C12.4267 12.3808 12.1442 12.5658 11.9508 12.645L11.9125 12.6617L11.91 12.6658L11.9017 12.6742C11.8942 12.68 11.8908 12.6808 11.885 12.6833C11.8078 12.7125 11.7294 12.7384 11.65 12.7608C11.4734 12.8122 11.2918 12.8444 11.1083 12.8567C11.0216 12.8622 10.9345 12.8546 10.85 12.8342C10.7767 12.818 10.712 12.7753 10.6683 12.7142C10.6283 12.6525 10.6167 12.57 10.6392 12.4683C10.6571 12.3959 10.6836 12.326 10.7183 12.26L8.05417 14.365H11.5975L12.0208 13.88C12.6025 13.2017 12.8675 12.7167 12.8675 12.3017V11.9492Z" fill="#EEEEEE"/>
</svg>

<svg xmlns="http://www.w3.org/2000/svg" width="20" height="20" fill="none" xmlns:v="https://vecta.io/nano"><path d="M13.512 5.635l-.062.326c-.097.618-.062.794.203 1.023l.256.212-.265 1.182c-.158.705-.352 1.296-.476 1.49-.106.168-.229.414-.256.547-.044.158-.194.318-.423.458-.203.115-.6.423-.882.671l-.464.38-.275.218a1.17 1.17 0 0 0-.157.342c-.019.089-.008.148.02.192s.075.071.14.089c.077.018.156.024.235.019.178-.012.355-.043.527-.093l.144-.044c.062-.076.204-.219.457-.468.67-.661.926-1.023.662-.925-.098.035-.053-.053.114-.23.353-.344.556-.864.979-2.495.335-1.288.335-1.306.582-1.306l.443.02V5.635h-.752-.749zm3.199 2.637c-.053 0-.142.08-.194.168-.097.158.017.255 1.473 1.163l1.543 1.05c-.017.026-.723.485-1.569 1.014-1.535.952-1.543.961-1.402 1.155.177.229 0 .308 1.992-.935L20 10.963v-.697l-1.614-.997-1.675-.997zM3.307 8.37c-.044 0-.803.45-1.675.988L0 10.354v.697l1.623 1.014 1.693 1.014c.035 0 .106-.08.177-.177.106-.168.017-.238-1.473-1.182C.6 10.83.45 10.707.592 10.61c.088-.062.758-.477 1.482-.926C3.723 8.67 3.634 8.74 3.502 8.528c-.052-.088-.142-.167-.194-.158h-.001zm7.237.019c-.243-.002-.767.369-2.333 1.648-.068.161-.073.272-.043.343.02.049.057.083.107.108a.52.52 0 0 0 .187.046c.143.012.311-.01.447-.037L9 10.478a.32.32 0 0 1 .12-.098c.097-.053.503-.423.908-.82.714-.723.882-1.05.591-1.156a.2.2 0 0 0-.075-.014h-.001zm1.83.502c-.214.006-.6.254-1.261.782-.332.269-.542.414-.654.444l-.437.345c-.164.3-.188.486-.145.588.011.025.027.048.046.067a.21.21 0 0 0 .069.044c.064.025.132.038.2.037a1.82 1.82 0 0 0 .483-.071l.242-.077.024-.01.044-.023c.083-.107.275-.31.515-.543.758-.732 1.146-1.252 1.067-1.446-.036-.094-.098-.142-.194-.138zm-2.02.9c-.062.007-.2.113-.449.332-.36.318-.753.502-.888.42l-.095.02a1.77 1.77 0 0 1-.465.037.59.59 0 0 1-.21-.053.28.28 0 0 1-.14-.142c-.031-.075-.031-.168.004-.288l-.542.445-1.226 1.014v1.644l4.017-3.164a.34.34 0 0 1 .013-.102c.031-.112.029-.168-.019-.163h0zm1.728.533c-.061 0-.162.086-.325.258-.221.236-.568.464-.752.511l-.028.015-.092.035-.19.057a1.85 1.85 0 0 1-.503.074.61.61 0 0 1-.229-.045c-.069-.028-.124-.082-.153-.15-.048-.116-.029-.278.077-.509l-3.543 2.791v1.004h1.557l3.302-2.593c.086-.095.215-.225.389-.387.467-.432.572-.582.572-.803 0-.172-.019-.258-.08-.258v.001zm.786 1.625l-.282.282c-.158.15-.441.335-.634.414l-.038.017-.002.004-.008.008c-.094.038-.172.064-.252.087a2.55 2.55 0 0 1-.542.096c-.087.005-.174-.002-.258-.023-.073-.016-.138-.059-.182-.12s-.052-.144-.029-.246c.018-.072.044-.142.079-.208l-2.664 2.105h3.543l.423-.485c.582-.678.847-1.163.847-1.578v-.353z" fill="#934081"/></svg>
